X:1
T:Lagan na h-àth'
L:1/8
M:6/8
I:linebreak $
K:D
V:1 treble 
V:1
 B | AAe AAa | AAe e2 d | cAe AAg | dBB BBG | AAe AAa | AAe e2 A | g2 e dBG |$ ABA A<A :: a | %10
 efg aea | cAe e2 d | c2 a efg | dBB BBG |1 AAa aga | cAA e2 c |$ g2 e dBG | ABA A<A :|2 AAa acA | %19
 acA e2 A | g2 e dBG | ABA A<A || %22
